app/dist/common/images/american-electric-power.svg

<svg height="18" width="18" xmlns="http://www.w3.org/2000/svg"><path d="m0 0h18v18h-18z" fill="#ed3e26"/><path d="m4.226 11h1.217l.047 1h5.097l.175-1.5h-1.551l.07-.75h1.546l.177-1.5h-1.552l.076-.75h1.546l.176-1.5h-3.397l-.6 5.393-.586-5.392h-2.334l-2.333 5.999h1.91zm.36-1h.757l-.123-2.102-.635 2.102zm8.398 2h-1.863l.664-6h2.428c1.631 0 1.775 1.702 1.779 1.753.04.57-.075 1.019-.075 1.019s-.292 1.228-1.646 1.228h-1.051l-.235 2zm.488-4.5-.123 1.125h.453s.397-.027.435-.53c.004-.049.01-.595-.395-.595z" fill="#fff" fill-rule="evenodd"/></svg>

<!-- by TradingView --><svg width="18" height="18" xmlns="http://www.w3.org/2000/svg"><path fill="#ED3E26" d="M0 0h18v18H0z"/><path fill-rule="evenodd" d="M4.226 11h1.217l.047 1h5.097l.175-1.5H9.211l.07-.75h1.546l.177-1.5H9.452l.076-.75h1.546L11.25 6H7.853l-.6 5.393-.586-5.392H4.333L2 12h1.91l.316-1zm.36-1h.757L5.22 7.898 4.585 10zM12.984 12h-1.863l.664-6h2.428c1.631 0 1.775 1.702 1.779 1.753.04.57-.075 1.019-.075 1.019S15.625 10 14.271 10H13.22l-.235 2zm.488-4.5l-.123 1.125h.453s.397-.027.435-.53c.004-.049.01-.595-.395-.595h-.37z" fill="#fff"/></svg>
